X:53
T:O dear What Can the matter be. JGi.053
M:6/8
L:1/8
Q:3/8=110
S:Joshua Gibbons MS,1823,Tealby,Lincs.
R:jig
O:Tealby,Lincolnshire
Z:VMP/R.Greig, 2009
K:G
d3d3|dBg dBG|c3c3|cAB cBA|d3d3|dBg dBG|EGc BcA |G3||
d|dBc dBc|dBg dBG|cAB cAB|cAB cBA|dBc dBc|dBg dBG|GBc BcA|G4||

